src/svg/git-pull-request-sharp.svg

<svg xmlns="http://www.w3.org/2000/svg" class="ionicon" viewBox="0 0 512 512"><title>Git Pull Request</title><path d="M192 96a64 64 0 10-97 54.81v209.8a64 64 0 1064 0V152a64.06 64.06 0 0033-56zm-64-32a32 32 0 11-32 32 32 32 0 0132-32zm-1 384a32 32 0 1132-32 32 32 0 01-32 32zM416 360.61V156a92.1 92.1 0 00-92-92h-35V9.93L201.14 96 289 182.07V128h35a28 28 0 0128 28v204.61a64 64 0 1064 0zM384 448a32 32 0 1132-32 32 32 0 01-32 32z" fill="currentColor"/></svg>

<svg xmlns="http://www.w3.org/2000/svg" width="512" height="512" viewBox="0 0 512 512"><title>ionicons-v5-d</title><path d="M192,96a64,64,0,1,0-97,54.81v209.8a64,64,0,1,0,64,0V152A64.06,64.06,0,0,0,192,96ZM128,64A32,32,0,1,1,96,96,32,32,0,0,1,128,64Zm-1,384a32,32,0,1,1,32-32A32,32,0,0,1,127,448Z"/><path d="M416,360.61V156a92.1,92.1,0,0,0-92-92H289V9.93L201.14,96,289,182.07V128h35a28,28,0,0,1,28,28V360.61a64,64,0,1,0,64,0ZM384,448a32,32,0,1,1,32-32A32,32,0,0,1,384,448Z"/></svg>
